X: 35859
T: San Llorienzu
R: jig
M: 6/8
K: Cmajor
|:efg edc|def ded|dcB ABc|def gag|
efg edc|def ded|dcB fed|edB c3:|
|:edc g2e|f2e dcB|dcB f2d|e2d cAG|
edc g2e|f2e dcB|dcB fed|edB c3:|
|:AcA BGB|dBf edc|AcA BGB|fed c3|
AcA BGB|dgf edc|AcA BGB|fed c3:|

